frontend/public/assets/material-icons/folder-android-open.svg

<svg xmlns="http://www.w3.org/2000/svg" viewBox="0 0 32 32">
  <path d="M28.96692,12H9.44152a2,2,0,0,0-1.89737,1.36754L4,24V10H28a2,2,0,0,0-2-2H15.1241a2,2,0,0,1-1.28038-.46357L12.5563,6.46357A2,2,0,0,0,11.27592,6H4A2,2,0,0,0,2,8V24a2,2,0,0,0,2,2H26l4.80523-11.21213A2,2,0,0,0,28.96692,12Z" style="fill: #8bc34a"/>
  <path d="M27.94287,19.47131,32,15.41418,30.58582,14,26.2525,18.33325a11.01306,11.01306,0,0,0-10.505,0L11.41418,14,10,15.41418l4.05713,4.05713A10.97563,10.97563,0,0,0,10,28H32A10.97563,10.97563,0,0,0,27.94287,19.47131ZM18,26H14V22h4Zm10,0H24V22h4Z" style="fill: #dcedc8;fill-rule: evenodd"/>
</svg>

<svg xmlns="http://www.w3.org/2000/svg" viewBox="0 0 32 32"><path fill="#8bc34a" d="M28.967 12H9.442a2 2 0 0 0-1.898 1.368L4 24V10h24a2 2 0 0 0-2-2H15.124a2 2 0 0 1-1.28-.464l-1.288-1.072A2 2 0 0 0 11.276 6H4a2 2 0 0 0-2 2v16a2 2 0 0 0 2 2h22l4.805-11.212A2 2 0 0 0 28.967 12"/><path fill="#dcedc8" d="M27.943 19.471 32 15.414 30.586 14l-4.333 4.333a11.01 11.01 0 0 0-10.505 0L11.414 14 10 15.414l4.057 4.057A10.98 10.98 0 0 0 10 28h22a10.98 10.98 0 0 0-4.057-8.529M18 26h-4v-4h4Zm10 0h-4v-4h4Z"/></svg>
